X:221
T:B221-  I often for my Jenny strove
Q:1/4=120
L:1/4
M:3/4
K:G
g|d/2B3/2c|A2G|ABc|D3|EG2|Bd2|efg|e2g|\
d/2B3/2c|A2G|ABc|D3|EFG|Bcd|A2G|G3||\
gab|efg|a/2f3/2g|e2d|B^cd|efg|e2d|d3|\
d/2B/2 (c/2B/2) (A/2G/2)|Bd2|FD2|EG2|\
(Bc)d|(ef)g|A2G|G2|]

